src/assets/img/linkedin.svg

<!-- Generated by IcoMoon.io -->
<svg version="1.1" xmlns="http://www.w3.org/2000/svg" width="32" height="32" viewBox="0 0 32 32">
<title>linkedin</title>
<path fill="#fff" d="M29 0h-26c-1.65 0-3 1.35-3 3v26c0 1.65 1.35 3 3 3h26c1.65 0 3-1.35 3-3v-26c0-1.65-1.35-3-3-3zM12 26h-4v-14h4v14zM10 10c-1.106 0-2-0.894-2-2s0.894-2 2-2c1.106 0 2 0.894 2 2s-0.894 2-2 2zM26 26h-4v-8c0-1.106-0.894-2-2-2s-2 0.894-2 2v8h-4v-14h4v2.481c0.825-1.131 2.087-2.481 3.5-2.481 2.488 0 4.5 2.238 4.5 5v9z"></path>
</svg>

<svg xmlns="http://www.w3.org/2000/svg" width="32" height="32"><path fill="#fff" d="M29 0H3C1.35 0 0 1.35 0 3v26c0 1.65 1.35 3 3 3h26c1.65 0 3-1.35 3-3V3c0-1.65-1.35-3-3-3zM12 26H8V12h4v14zm-2-16c-1.106 0-2-.894-2-2s.894-2 2-2c1.106 0 2 .894 2 2s-.894 2-2 2zm16 16h-4v-8c0-1.106-.894-2-2-2s-2 .894-2 2v8h-4V12h4v2.481C18.825 13.35 20.087 12 21.5 12c2.488 0 4.5 2.238 4.5 5v9z"/></svg>
